X: 801
T: Alabama Rick's
R: jig
M: 6/8
K: Amajor
|:AFE FAd|cAA A2 A|afd eff|ecA ABB|
AFE FAd|cAA A2 e|cde eff|1 ecB A2 A:|2 ecB A2 e||
|:=ged ABB|de=g ece|aec ABA|cea ece|
=ged ABB|de=g ece|aee eff|1 ecB A2 e:|2 ecB A2 e||
|:aee eae|d2 c eae|c2 B eae|c2 B efg|
aee eae|d2 c efg|aee eff|1 ecB A2 e:|2 ecB A3||
|:AFE FAd|cA/A/A A2 A|afd ef/f/f|ecA A/B/BB|
AFE FAd|cA/A/A Ace|cde ef/f/f|1 ecA AA/B/A:|2 ecB AA/B/A||
|:=ged AB/B/B|de=g ece|aec AA/B/A|cea ece|
=ged AB/B/B|de=g ece|aec ef/f/f|1 ecB A2f:|2 ecB Afg||
aa/e/e ee/a/e|dA/A/c ee/a/e|cA/A/B ee/a/e|cA/A/B efg|
aa/e/e ee/a/e|dA/A/c efg|ae/e/e ef/f/f|ecB Afg|
aa/e/e ee/a/e|d'2 c' ee/a/e|c'2 b ee/a/e|c'2 b efg|
aa/e/e ee/a/e|d'2 c' ee/a/e|ae/e/e ef/f/f|ecB A3||

